media/costumes/tree1.svg

<svg width="148" height="208" viewBox="-1 -1 148 208" xmlns="http://www.w3.org/2000/svg"><defs><radialGradient id="a" cx=".515" cy=".508" r=".67"><stop offset="0" stop-color="#995900"/><stop offset="1" stop-color="#663B00"/></radialGradient><radialGradient id="b" cx=".486" cy=".322" r=".881"><stop offset="0" stop-color="#062"/><stop offset="1" stop-color="#093"/></radialGradient><radialGradient id="c" cx=".486" cy=".322" r=".881"><stop offset="0" stop-color="#062"/><stop offset="1" stop-color="#093"/></radialGradient><radialGradient id="d" cx=".486" cy=".322" r=".881"><stop offset="0" stop-color="#062"/><stop offset="1" stop-color="#093"/></radialGradient><radialGradient id="e" cx=".486" cy=".322" r=".881"><stop offset="0" stop-color="#062"/><stop offset="1" stop-color="#093"/></radialGradient><radialGradient id="f" cx=".486" cy=".322" r=".881"><stop offset="0" stop-color="#062"/><stop offset="1" stop-color="#093"/></radialGradient><radialGradient id="g" cx=".486" cy=".322" r=".881"><stop offset="0" stop-color="#062"/><stop offset="1" stop-color="#093"/></radialGradient><radialGradient id="h" cx=".486" cy=".322" r=".881"><stop offset="0" stop-color="#062"/><stop offset="1" stop-color="#093"/></radialGradient><radialGradient id="i" cx=".486" cy=".322" r=".881"><stop offset="0" stop-color="#062"/><stop offset="1" stop-color="#093"/></radialGradient><radialGradient id="j" cx=".486" cy=".322" r=".881"><stop offset="0" stop-color="#062"/><stop offset="1" stop-color="#093"/></radialGradient><radialGradient id="k" cx=".486" cy=".322" r=".881"><stop offset="0" stop-color="#062"/><stop offset="1" stop-color="#093"/></radialGradient><radialGradient id="l" cx=".486" cy=".322" r=".881"><stop offset="0" stop-color="#062"/><stop offset="1" stop-color="#093"/></radialGradient><radialGradient id="m" cx=".486" cy=".322" r=".881"><stop offset="0" stop-color="#062"/><stop offset="1" stop-color="#093"/></radialGradient><radialGradient id="n" cx=".486" cy=".322" r=".881"><stop offset="0" stop-color="#062"/><stop offset="1" stop-color="#093"/></radialGradient><radialGradient id="o" cx=".486" cy=".322" r=".881"><stop offset="0" stop-color="#062"/><stop offset="1" stop-color="#093"/></radialGradient></defs><path fill="url(#a)" stroke="#995900" d="M227.5 193h41v90.5h-41V193z" transform="matrix(.69175 0 0 1.4918 -96.1 -216.65)"/><path fill="url(#b)" d="M210.5 149.5c8.625-.913 18.932 1.905 25.449 4.982 6.517 3.078 10.551 7.328 10.551 12.018s-5.373 10.858-10.551 12.018c-4.631 1.024-8.869-5.324-13.449-4.718-2.309.269-1.367 4.915-3.5 6.4-2.162 1.986-5.427 3.388-8.5 3.3-6.368-.184-12.258-.564-16.5-4-5.63-3.851-10.516-10.146-11-16.3-.161-2.81 4.968-2.814 7.5-4.25 6.404-3.604 12.443-8.654 20-9.45z" transform="matrix(.71429 0 0 .5042 -105.1 18.65)"/><path fill="url(#c)" d="M205.25 133.15c2.943-.424 2.28 6.529 5.5 7.05 4.646.737 9.72-6.501 13.5-4.2 6.198 3.787 7.515 13.122 11.699 18.482 3.296 4.17 10.551 7.328 10.551 12.018s-5.373 10.858-10.551 12.018c-4.631 1.024-8.869-5.324-13.449-4.718-2.309.269-1.367 4.915-3.5 6.4-2.162 1.986-5.427 3.388-8.5 3.3-6.368-.184-11.766-.918-16.5-4-3.895-2.535-6.224-6.703-6.75-10.95-1.043-8.408-2.543-17.917 1-25.5 3.241-5.76 10.827-9.01 17-9.9z" transform="matrix(1.45835 0 0 .87076 -225 -115.5)"/><path fill="url(#d)" d="M210.5 149.5c8.625-.913 18.932 1.905 25.449 4.982 6.517 3.078 10.551 7.328 10.551 12.018s-5.373 10.858-10.551 12.018c-4.631 1.024-8.869-5.324-13.449-4.718-2.309.269-1.367 4.915-3.5 6.4-2.162 1.986-5.427 3.388-8.5 3.3-6.368-.184-12.258-.564-16.5-4-5.63-3.851-10.516-10.146-11-16.3-.161-2.81 4.968-2.814 7.5-4.25 6.404-3.604 12.443-8.654 20-9.45z" transform="matrix(1 0 0 .70588 -109.75 -22.95)"/><path fill="url(#e)" d="M210.5 149.5c8.625-.913 18.932 1.905 25.449 4.982 6.517 3.078 10.551 7.328 10.551 12.018s-5.373 10.858-10.551 12.018c-4.631 1.024-8.869-5.324-13.449-4.718-2.309.269-1.367 4.915-3.5 6.4-2.162 1.986-5.427 3.388-8.5 3.3-6.368-.184-11.351-1.719-16.5-4-4.442-1.996-10.98-2.626-11.75-6.75-.88-5.567 4.393-10.83 8.25-13.8 5.859-4.445 12.443-8.654 20-9.45z" transform="matrix(1 0 0 .70588 -168.25 -29.45)"/><path fill="url(#f)" d="M210.5 149.5c8.625-.913 18.932 1.905 25.449 4.982 6.517 3.078 10.551 7.328 10.551 12.018s-5.373 10.858-10.551 12.018c-4.631 1.024-8.869-5.324-13.449-4.718-2.309.269-1.367 4.915-3.5 6.4-2.162 1.986-5.427 3.388-8.5 3.3-6.368-.184-12.258-.564-16.5-4-5.63-3.851-10.516-10.146-11-16.3-.161-2.81 4.968-2.814 7.5-4.25 6.404-3.604 12.443-8.654 20-9.45z" transform="matrix(1 0 0 .70588 -144.25 -19.45)"/><path fill="url(#g)" d="M210.5 149.5c8.625-.913 18.932 1.905 25.449 4.982 6.517 3.078 10.551 7.328 10.551 12.018s-5.373 10.858-10.551 12.018c-4.631 1.024-8.869-5.324-13.449-4.718-2.309.269-1.367 4.915-3.5 6.4-2.162 1.986-5.427 3.388-8.5 3.3-6.368-.184-12.258-.564-16.5-4-5.63-3.851-10.516-10.146-11-16.3-.161-2.81 4.968-2.814 7.5-4.25 6.404-3.604 12.443-8.654 20-9.45z" transform="matrix(1 0 0 .70588 -147.25 -47.45)"/><path fill="url(#h)" d="M210.5 149.5c8.625-.913 18.932 1.905 25.449 4.982 6.517 3.078 10.551 7.328 10.551 12.018s-5.373 10.858-10.551 12.018c-4.631 1.024-8.869-5.324-13.449-4.718-2.309.269-1.367 4.915-3.5 6.4-2.162 1.986-5.427 3.388-8.5 3.3-6.368-.184-12.258-.564-16.5-4-5.63-3.851-10.516-10.146-11-16.3-.161-2.81 4.968-2.814 7.5-4.25 6.404-3.604 12.443-8.654 20-9.45z" transform="matrix(1 0 0 .70588 -113.25 -37.45)"/><path fill="url(#i)" d="M210.5 149.5c8.625-.913 18.932 1.905 25.449 4.982 6.517 3.078 10.551 7.328 10.551 12.018s-5.373 10.858-10.551 12.018c-4.631 1.024-8.869-5.324-13.449-4.718-2.309.269-1.367 4.915-3.5 6.4-2.162 1.986-5.48 3.161-8.5 3.3-2.791.094-5.469-.851-7.75-2.25-3.37-2.059-5.307-6.254-8-9.2-3.917-3.095-10.74-4.359-11.75-8.85-.585-2.568 4.968-2.814 7.5-4.25 6.404-3.604 12.443-8.654 20-9.45z" transform="matrix(1 0 0 .70588 -175.75 -49.45)"/><path fill="url(#j)" d="M208.3 141.35c.93-.11 1.265-.751 2.45-1.15 4.455-1.502 9.72-6.501 13.5-4.2 6.198 3.787 7.515 13.122 11.699 18.482 3.296 4.17 10.551 7.328 10.551 12.018s-5.373 10.858-10.551 12.018c-4.631 1.024-8.869-5.324-13.449-4.718-2.309.269-1.367 4.915-3.5 6.4-2.162 1.986-5.427 3.388-8.5 3.3-6.368-.184-11.766-.918-16.5-4-3.895-2.535-7.789-6.803-6.75-10.95 1.636-6.43 9.808-8.886 12-14.85 1.15-3.116-5.649-6.479-3.8-9.1 2.395-3.393 8.512-1.845 12.85-3.25z" transform="matrix(1.31927 0 0 .93125 -246.35 -106.15)"/><path fill="url(#k)" d="M210.5 149.5c8.625-.913 18.932 1.905 25.449 4.982 6.517 3.078 10.551 7.328 10.551 12.018s-5.373 10.858-10.551 12.018c-4.631 1.024-8.869-5.324-13.449-4.718-2.309.269-1.367 4.915-3.5 6.4-2.162 1.986-5.427 3.388-8.5 3.3-6.368-.184-12.258-.564-16.5-4-5.63-3.851-10.516-10.146-11-16.3-.161-2.81 4.968-2.814 7.5-4.25 6.404-3.604 12.443-8.654 20-9.45z" transform="matrix(1.26378 0 0 .89208 -170.65 -103.15)"/><path fill="url(#l)" d="M205.25 133.15c2.943-.424 2.28 6.529 5.5 7.05 4.646.737 9.72-6.501 13.5-4.2 6.198 3.787 7.515 13.122 11.699 18.482 3.296 4.17 10.551 7.328 10.551 12.018s-5.373 10.858-10.551 12.018c-4.631 1.024-8.869-5.324-13.449-4.718-2.309.269-1.367 4.915-3.5 6.4-2.162 1.986-5.427 3.388-8.5 3.3-6.368-.184-11.766-.918-16.5-4-3.895-2.535-6.224-6.703-6.75-10.95-1.043-8.408-2.543-17.917 1-25.5 3.241-5.76 10.827-9.01 17-9.9z" transform="matrix(1 0 0 .70588 -99.7 -47.25)"/><path fill="url(#m)" d="M205.25 133.15c2.943-.424 2.28 6.529 5.5 7.05 4.646.737 9.72-6.501 13.5-4.2 6.198 3.787 7.515 13.122 11.699 18.482 3.296 4.17 10.551 7.328 10.551 12.018s-5.373 10.858-10.551 12.018c-4.631 1.024-8.869-5.324-13.449-4.718-2.309.269-1.367 4.915-3.5 6.4-2.162 1.986-5.427 3.388-8.5 3.3-6.368-.184-11.766-.918-16.5-4-3.895-2.535-6.224-6.703-6.75-10.95-1.043-8.408-2.543-17.917 1-25.5 3.241-5.76 10.827-9.01 17-9.9z" transform="matrix(1 0 0 .70588 -147.35 -60.75)"/><path fill="url(#n)" d="M210.5 149.5c5.237-.29 9.592 1.617 13.35 4 20.123 15.1 14.901 21.035 12.099 25.018-2.419 2.277-8.833-5.29-13.449-4.718-2.336.262-1.138 6.776-3.5 6.4-4.95-.891-7.204-9.853-12.65-10.8-5.022-.815-9.128 7.015-14 5.95-4.876-1.524-9.506-6.954-9.35-12.15.133-4.186 6.402-5.021 10.05-7.7 5.611-1.934 11.312-5.647 17.45-6z" transform="matrix(.71429 0 0 .36595 -55.9 45.3)"/><path fill="url(#o)" d="M210.5 149.5c5.237-.29 9.592 1.617 13.35 4 20.123 15.1 14.901 21.035 12.099 25.018-2.419 2.277-8.833-5.29-13.449-4.718-2.336.262-1.138 6.776-3.5 6.4-4.95-.891-7.204-9.853-12.65-10.8-5.022-.815-9.128 7.015-14 5.95-4.876-1.524-9.506-6.954-9.35-12.15.133-4.186 6.402-5.021 10.05-7.7 5.611-1.934 11.312-5.647 17.45-6z" transform="matrix(.71429 0 0 .5042 -106.2 -64)"/></svg>

<svg version="1.1" width="148" height="208" viewBox="-1 -1 148 208" xmlns="http://www.w3.org/2000/svg" xmlns:xlink="http://www.w3.org/1999/xlink">
  <defs>
    <radialGradient id="grad_1" cx="0.5154" cy="0.5081" r="0.67002">
      <stop offset="0" stop-color="#995900" stop-opacity="1"/>
      <stop offset="1" stop-color="#663B00" stop-opacity="1"/>
    </radialGradient>
    <radialGradient id="grad_2" cx="0.4861" cy="0.322" r="0.8814">
      <stop offset="0" stop-color="#006622" stop-opacity="1"/>
      <stop offset="1" stop-color="#009933" stop-opacity="1"/>
    </radialGradient>
    <radialGradient id="grad_3" cx="0.4861" cy="0.322" r="0.8814">
      <stop offset="0" stop-color="#006622" stop-opacity="1"/>
      <stop offset="1" stop-color="#009933" stop-opacity="1"/>
    </radialGradient>
    <radialGradient id="grad_4" cx="0.4861" cy="0.322" r="0.8814">
      <stop offset="0" stop-color="#006622" stop-opacity="1"/>
      <stop offset="1" stop-color="#009933" stop-opacity="1"/>
    </radialGradient>
    <radialGradient id="grad_5" cx="0.4861" cy="0.322" r="0.8814">
      <stop offset="0" stop-color="#006622" stop-opacity="1"/>
      <stop offset="1" stop-color="#009933" stop-opacity="1"/>
    </radialGradient>
    <radialGradient id="grad_6" cx="0.4861" cy="0.322" r="0.8814">
      <stop offset="0" stop-color="#006622" stop-opacity="1"/>
      <stop offset="1" stop-color="#009933" stop-opacity="1"/>
    </radialGradient>
    <radialGradient id="grad_7" cx="0.4861" cy="0.322" r="0.8814">
      <stop offset="0" stop-color="#006622" stop-opacity="1"/>
      <stop offset="1" stop-color="#009933" stop-opacity="1"/>
    </radialGradient>
    <radialGradient id="grad_8" cx="0.4861" cy="0.322" r="0.8814">
      <stop offset="0" stop-color="#006622" stop-opacity="1"/>
      <stop offset="1" stop-color="#009933" stop-opacity="1"/>
    </radialGradient>
    <radialGradient id="grad_9" cx="0.4861" cy="0.322" r="0.8814">
      <stop offset="0" stop-color="#006622" stop-opacity="1"/>
      <stop offset="1" stop-color="#009933" stop-opacity="1"/>
    </radialGradient>
    <radialGradient id="grad_10" cx="0.4861" cy="0.322" r="0.8814">
      <stop offset="0" stop-color="#006622" stop-opacity="1"/>
      <stop offset="1" stop-color="#009933" stop-opacity="1"/>
    </radialGradient>
    <radialGradient id="grad_11" cx="0.4861" cy="0.322" r="0.8814">
      <stop offset="0" stop-color="#006622" stop-opacity="1"/>
      <stop offset="1" stop-color="#009933" stop-opacity="1"/>
    </radialGradient>
    <radialGradient id="grad_12" cx="0.4861" cy="0.322" r="0.8814">
      <stop offset="0" stop-color="#006622" stop-opacity="1"/>
      <stop offset="1" stop-color="#009933" stop-opacity="1"/>
    </radialGradient>
    <radialGradient id="grad_13" cx="0.4861" cy="0.322" r="0.8814">
      <stop offset="0" stop-color="#006622" stop-opacity="1"/>
      <stop offset="1" stop-color="#009933" stop-opacity="1"/>
    </radialGradient>
    <radialGradient id="grad_14" cx="0.4861" cy="0.322" r="0.8814">
      <stop offset="0" stop-color="#006622" stop-opacity="1"/>
      <stop offset="1" stop-color="#009933" stop-opacity="1"/>
    </radialGradient>
    <radialGradient id="grad_15" cx="0.4861" cy="0.322" r="0.8814">
      <stop offset="0" stop-color="#006622" stop-opacity="1"/>
      <stop offset="1" stop-color="#009933" stop-opacity="1"/>
    </radialGradient>
  </defs>
  <!-- Exported by Scratch - http://scratch.mit.edu/ -->
  <g id="ID0.7957091517746449">
    <path id="ID0.3466357826255262" fill="url(#grad_1)" stroke="#995900" d="M 227.500 193 L 268.500 193 L 268.500 283.500 L 227.500 283.500 L 227.500 193 Z " transform="matrix(0.6917475461959839, 0, 0, 1.4918032884597778, -96.1, -216.65)"/>
    <path id="ID0.6449568010866642" fill="url(#grad_2)" stroke="none" stroke-linecap="round" d="M 210.500 149.500 C 219.125 148.587 229.432 151.405 235.949 154.482 C 242.466 157.560 246.500 161.810 246.500 166.500 C 246.500 171.190 241.127 177.358 235.949 178.518 C 231.318 179.542 227.080 173.194 222.500 173.800 C 220.191 174.069 221.133 178.715 219 180.200 C 216.838 182.186 213.573 183.588 210.500 183.500 C 204.132 183.316 198.242 182.936 194 179.500 C 188.370 175.649 183.484 169.354 183 163.200 C 182.839 160.390 187.968 160.386 190.500 158.950 C 196.904 155.346 202.943 150.296 210.500 149.500 Z " transform="matrix(0.7142857313156128, 0, 0, 0.5042017102241516, -105.1, 18.65)"/>
    <path id="ID0.6449568010866642" fill="url(#grad_3)" stroke="none" stroke-linecap="round" d="M 205.250 133.150 C 208.193 132.726 207.530 139.679 210.750 140.200 C 215.396 140.937 220.470 133.699 224.250 136 C 230.448 139.787 231.765 149.122 235.949 154.482 C 239.245 158.652 246.500 161.810 246.500 166.500 C 246.500 171.190 241.127 177.358 235.949 178.518 C 231.318 179.542 227.080 173.194 222.500 173.800 C 220.191 174.069 221.133 178.715 219 180.200 C 216.838 182.186 213.573 183.588 210.500 183.500 C 204.132 183.316 198.734 182.582 194 179.500 C 190.105 176.965 187.776 172.797 187.250 168.550 C 186.207 160.142 184.707 150.633 188.250 143.050 C 191.491 137.290 199.077 134.040 205.250 133.150 Z " transform="matrix(1.4583508968353271, 0, 0, 0.8707569241523743, -225, -115.5)"/>
    <path id="ID0.6449568010866642" fill="url(#grad_4)" stroke="none" stroke-linecap="round" d="M 210.500 149.500 C 219.125 148.587 229.432 151.405 235.949 154.482 C 242.466 157.560 246.500 161.810 246.500 166.500 C 246.500 171.190 241.127 177.358 235.949 178.518 C 231.318 179.542 227.080 173.194 222.500 173.800 C 220.191 174.069 221.133 178.715 219 180.200 C 216.838 182.186 213.573 183.588 210.500 183.500 C 204.132 183.316 198.242 182.936 194 179.500 C 188.370 175.649 183.484 169.354 183 163.200 C 182.839 160.390 187.968 160.386 190.500 158.950 C 196.904 155.346 202.943 150.296 210.500 149.500 Z " transform="matrix(1, 0, 0, 0.7058823704719543, -109.75, -22.95)"/>
    <path id="ID0.6449568010866642" fill="url(#grad_5)" stroke="none" stroke-linecap="round" d="M 210.500 149.500 C 219.125 148.587 229.432 151.405 235.949 154.482 C 242.466 157.560 246.500 161.810 246.500 166.500 C 246.500 171.190 241.127 177.358 235.949 178.518 C 231.318 179.542 227.080 173.194 222.500 173.800 C 220.191 174.069 221.133 178.715 219 180.200 C 216.838 182.186 213.573 183.588 210.500 183.500 C 204.132 183.316 199.149 181.781 194 179.500 C 189.558 177.504 183.020 176.874 182.250 172.750 C 181.370 167.183 186.643 161.920 190.500 158.950 C 196.359 154.505 202.943 150.296 210.500 149.500 Z " transform="matrix(1, 0, 0, 0.7058823704719543, -168.25, -29.45)"/>
    <path id="ID0.6449568010866642" fill="url(#grad_6)" stroke="none" stroke-linecap="round" d="M 210.500 149.500 C 219.125 148.587 229.432 151.405 235.949 154.482 C 242.466 157.560 246.500 161.810 246.500 166.500 C 246.500 171.190 241.127 177.358 235.949 178.518 C 231.318 179.542 227.080 173.194 222.500 173.800 C 220.191 174.069 221.133 178.715 219 180.200 C 216.838 182.186 213.573 183.588 210.500 183.500 C 204.132 183.316 198.242 182.936 194 179.500 C 188.370 175.649 183.484 169.354 183 163.200 C 182.839 160.390 187.968 160.386 190.500 158.950 C 196.904 155.346 202.943 150.296 210.500 149.500 Z " transform="matrix(1, 0, 0, 0.7058823704719543, -144.25, -19.45)"/>
    <path id="ID0.6449568010866642" fill="url(#grad_7)" stroke="none" stroke-linecap="round" d="M 210.500 149.500 C 219.125 148.587 229.432 151.405 235.949 154.482 C 242.466 157.560 246.500 161.810 246.500 166.500 C 246.500 171.190 241.127 177.358 235.949 178.518 C 231.318 179.542 227.080 173.194 222.500 173.800 C 220.191 174.069 221.133 178.715 219 180.200 C 216.838 182.186 213.573 183.588 210.500 183.500 C 204.132 183.316 198.242 182.936 194 179.500 C 188.370 175.649 183.484 169.354 183 163.200 C 182.839 160.390 187.968 160.386 190.500 158.950 C 196.904 155.346 202.943 150.296 210.500 149.500 Z " transform="matrix(1, 0, 0, 0.7058823704719543, -147.25, -47.45)"/>
    <path id="ID0.6449568010866642" fill="url(#grad_8)" stroke="none" stroke-linecap="round" d="M 210.500 149.500 C 219.125 148.587 229.432 151.405 235.949 154.482 C 242.466 157.560 246.500 161.810 246.500 166.500 C 246.500 171.190 241.127 177.358 235.949 178.518 C 231.318 179.542 227.080 173.194 222.500 173.800 C 220.191 174.069 221.133 178.715 219 180.200 C 216.838 182.186 213.573 183.588 210.500 183.500 C 204.132 183.316 198.242 182.936 194 179.500 C 188.370 175.649 183.484 169.354 183 163.200 C 182.839 160.390 187.968 160.386 190.500 158.950 C 196.904 155.346 202.943 150.296 210.500 149.500 Z " transform="matrix(1, 0, 0, 0.7058823704719543, -113.25, -37.45)"/>
    <path id="ID0.6449568010866642" fill="url(#grad_9)" stroke="none" stroke-linecap="round" d="M 210.500 149.500 C 219.125 148.587 229.432 151.405 235.949 154.482 C 242.466 157.560 246.500 161.810 246.500 166.500 C 246.500 171.190 241.127 177.358 235.949 178.518 C 231.318 179.542 227.080 173.194 222.500 173.800 C 220.191 174.069 221.133 178.715 219 180.200 C 216.838 182.186 213.520 183.361 210.500 183.500 C 207.709 183.594 205.031 182.649 202.750 181.250 C 199.380 179.191 197.443 174.996 194.750 172.050 C 190.833 168.955 184.010 167.691 183 163.200 C 182.415 160.632 187.968 160.386 190.500 158.950 C 196.904 155.346 202.943 150.296 210.500 149.500 Z " transform="matrix(1, 0, 0, 0.7058823704719543, -175.75, -49.45)"/>
    <path id="ID0.6449568010866642" fill="url(#grad_10)" stroke="none" stroke-linecap="round" d="M 208.300 141.350 C 209.230 141.240 209.565 140.599 210.750 140.200 C 215.205 138.698 220.470 133.699 224.250 136 C 230.448 139.787 231.765 149.122 235.949 154.482 C 239.245 158.652 246.500 161.810 246.500 166.500 C 246.500 171.190 241.127 177.358 235.949 178.518 C 231.318 179.542 227.080 173.194 222.500 173.800 C 220.191 174.069 221.133 178.715 219 180.200 C 216.838 182.186 213.573 183.588 210.500 183.500 C 204.132 183.316 198.734 182.582 194 179.500 C 190.105 176.965 186.211 172.697 187.250 168.550 C 188.886 162.120 197.058 159.664 199.250 153.700 C 200.400 150.584 193.601 147.221 195.450 144.600 C 197.845 141.207 203.962 142.755 208.300 141.350 Z " transform="matrix(1.3192721605300903, 0, 0, 0.9312509298324585, -246.35, -106.15)"/>
    <path id="ID0.6449568010866642" fill="url(#grad_11)" stroke="none" stroke-linecap="round" d="M 210.500 149.500 C 219.125 148.587 229.432 151.405 235.949 154.482 C 242.466 157.560 246.500 161.810 246.500 166.500 C 246.500 171.190 241.127 177.358 235.949 178.518 C 231.318 179.542 227.080 173.194 222.500 173.800 C 220.191 174.069 221.133 178.715 219 180.200 C 216.838 182.186 213.573 183.588 210.500 183.500 C 204.132 183.316 198.242 182.936 194 179.500 C 188.370 175.649 183.484 169.354 183 163.200 C 182.839 160.390 187.968 160.386 190.500 158.950 C 196.904 155.346 202.943 150.296 210.500 149.500 Z " transform="matrix(1.2637795209884644, 0, 0, 0.8920797109603882, -170.65, -103.15)"/>
    <path id="ID0.6449568010866642" fill="url(#grad_12)" stroke="none" stroke-linecap="round" d="M 205.250 133.150 C 208.193 132.726 207.530 139.679 210.750 140.200 C 215.396 140.937 220.470 133.699 224.250 136 C 230.448 139.787 231.765 149.122 235.949 154.482 C 239.245 158.652 246.500 161.810 246.500 166.500 C 246.500 171.190 241.127 177.358 235.949 178.518 C 231.318 179.542 227.080 173.194 222.500 173.800 C 220.191 174.069 221.133 178.715 219 180.200 C 216.838 182.186 213.573 183.588 210.500 183.500 C 204.132 183.316 198.734 182.582 194 179.500 C 190.105 176.965 187.776 172.797 187.250 168.550 C 186.207 160.142 184.707 150.633 188.250 143.050 C 191.491 137.290 199.077 134.040 205.250 133.150 Z " transform="matrix(1, 0, 0, 0.7058823704719543, -99.7, -47.25)"/>
    <path id="ID0.6449568010866642" fill="url(#grad_13)" stroke="none" stroke-linecap="round" d="M 205.250 133.150 C 208.193 132.726 207.530 139.679 210.750 140.200 C 215.396 140.937 220.470 133.699 224.250 136 C 230.448 139.787 231.765 149.122 235.949 154.482 C 239.245 158.652 246.500 161.810 246.500 166.500 C 246.500 171.190 241.127 177.358 235.949 178.518 C 231.318 179.542 227.080 173.194 222.500 173.800 C 220.191 174.069 221.133 178.715 219 180.200 C 216.838 182.186 213.573 183.588 210.500 183.500 C 204.132 183.316 198.734 182.582 194 179.500 C 190.105 176.965 187.776 172.797 187.250 168.550 C 186.207 160.142 184.707 150.633 188.250 143.050 C 191.491 137.290 199.077 134.040 205.250 133.150 Z " transform="matrix(1, 0, 0, 0.7058823704719543, -147.35, -60.75)"/>
    <path id="ID0.6449568010866642" fill="url(#grad_14)" stroke="none" stroke-linecap="round" d="M 210.500 149.500 C 215.737 149.210 220.092 151.117 223.850 153.500 C 243.973 168.600 238.751 174.535 235.949 178.518 C 233.530 180.795 227.116 173.228 222.500 173.800 C 220.164 174.062 221.362 180.576 219 180.200 C 214.050 179.309 211.796 170.347 206.350 169.400 C 201.328 168.585 197.222 176.415 192.350 175.350 C 187.474 173.826 182.844 168.396 183 163.200 C 183.133 159.014 189.402 158.179 193.050 155.500 C 198.661 153.566 204.362 149.853 210.500 149.500 Z " transform="matrix(0.7142857313156128, 0, 0, 0.36595284938812256, -55.9, 45.3)"/>
    <path id="ID0.6449568010866642" fill="url(#grad_15)" stroke="none" stroke-linecap="round" d="M 210.500 149.500 C 215.737 149.210 220.092 151.117 223.850 153.500 C 243.973 168.600 238.751 174.535 235.949 178.518 C 233.530 180.795 227.116 173.228 222.500 173.800 C 220.164 174.062 221.362 180.576 219 180.200 C 214.050 179.309 211.796 170.347 206.350 169.400 C 201.328 168.585 197.222 176.415 192.350 175.350 C 187.474 173.826 182.844 168.396 183 163.200 C 183.133 159.014 189.402 158.179 193.050 155.500 C 198.661 153.566 204.362 149.853 210.500 149.500 Z " transform="matrix(0.7142857313156128, 0, 0, 0.5042017102241516, -106.2, -64)"/>
  </g>
</svg>
